X: 676
T: Rao wanwan
%%abc-version 2.0
%%abcx-abcm2ps-target-version 5.9.1 (29 Sep 2008)
%%abc-creator hum2abc beta
%%abcx-conversion-date 2013/10/02 07:52:30
%%abc-edited-by Helmut Schaffrath
%%humdrum-veritas 1943176446
%%humdrum-veritas-data 3055502916
%%continueall 1
%%barnumbers 0
L: 1/16
M: 2/4
K: C
c2 A2G4 [I:setbarnb 1]| 
c2> d2 e e e2 | 
d2> c2 d e d c | 
B4z4 | 
c2 c AG4 | 
c2> d2e4 | 
d2 c2 d c A2 | 
G8 |]  



